images_sukapura_svg/cmd/32/exportto.svg

<svg viewBox="0 0 32 32" xmlns="http://www.w3.org/2000/svg" xmlns:xlink="http://www.w3.org/1999/xlink"><linearGradient id="a" gradientUnits="userSpaceOnUse" x1="-.694915" x2="-.694915" y1="30.220339" y2="18.220339"><stop offset="0" stop-color="#0040dd"/><stop offset="1" stop-color="#0a84ff"/></linearGradient><radialGradient id="b" cx="22" cy="9.076923" gradientTransform="matrix(1.3 .00000001 -.00000002 1.5 -6.6 -6.615385)" gradientUnits="userSpaceOnUse" r="10"><stop offset="0" stop-color="#d7d7d7"/><stop offset=".29999998" stop-color="#f7f7f7"/><stop offset="1" stop-color="#fff"/></radialGradient><linearGradient id="c" gradientUnits="userSpaceOnUse" x1="20" x2="23" y1="9" y2="6"><stop offset="0" stop-color="#fff"/><stop offset=".77967989" stop-color="#f1f1f1"/><stop offset="1" stop-color="#d5d5d5"/></linearGradient><path d="m6 3v26h19.99762l.00238-19-7-7z" fill="url(#b)"/><path d="m5.9976202 2c-.554 0-1 .446-1 1v26c0 .554.446 1 1 1h19.9999998c.554 0 .892483-.456533 1-1v-10.109375-10.5052752l-6.508082-6.3853498zm0 1h12.9999998v6c0 .6726441.491378 1 1 1h6v19h-19.9999998z" fill="#98989d"/><path d="m20 9h6l-6-6z" fill="url(#c)" fill-rule="evenodd"/><path d="m23.951172 15c-1.554298.025494-2.951259 1.445387-2.951172 3v1h-4c-1.627438 0-3 1.372562-3 3v2c0 1.627438 1.372562 3 3 3h4v1c-.000183.733583.297145 1.452221.783203 2h4.214844c.116082 0 .217438-.029719.314453-.066406l.568359-.56836c.051346-.114268.091665-.236224.117188-.365234v-10.109375-2.138672l-.878906-.876953a2.000261 2.000261 0 0 0 -.001953-.001953c-.566794-.563995-1.366544-.886321-2.166016-.873047z" fill="#fff" fill-opacity=".784314"/><path d="m23.984375 17a1.0000674 1.0000674 0 0 0 -.984375 1v3h-6c-.554 0-1 .446-1 1v2c0 .554.446 1 1 1h6v3a1.0000674 1.0000674 0 0 0 1.707031.708984l5.013672-5a1.0000674 1.0000674 0 0 0 0-1.417968l-5.013672-5a1.0000674 1.0000674 0 0 0 -.722656-.291016z" fill="url(#a)"/></svg>

<?xml version="1.0" encoding="UTF-8" standalone="no"?>
<svg
   xmlns:dc="http://purl.org/dc/elements/1.1/"
   xmlns:cc="http://creativecommons.org/ns#"
   xmlns:rdf="http://www.w3.org/1999/02/22-rdf-syntax-ns#"
   xmlns:svg="http://www.w3.org/2000/svg"
   xmlns="http://www.w3.org/2000/svg"
   xmlns:xlink="http://www.w3.org/1999/xlink"
   xmlns:sodipodi="http://sodipodi.sourceforge.net/DTD/sodipodi-0.dtd"
   xmlns:inkscape="http://www.inkscape.org/namespaces/inkscape"
   viewBox="0 0 32 32"
   version="1.1"
   id="svg22"
   sodipodi:docname="exportto.svg"
   inkscape:version="0.92.3 (unknown)">
  <metadata
     id="metadata28">
    <rdf:RDF>
      <cc:Work
         rdf:about="">
        <dc:format>image/svg+xml</dc:format>
        <dc:type
           rdf:resource="http://purl.org/dc/dcmitype/StillImage" />
        <dc:title></dc:title>
      </cc:Work>
    </rdf:RDF>
  </metadata>
  <defs
     id="defs26">
    <linearGradient
       inkscape:collect="always"
       xlink:href="#a-6"
       id="linearGradient1500"
       x1="29"
       y1="29"
       x2="29"
       y2="17"
       gradientUnits="userSpaceOnUse" />
    <linearGradient
       gradientTransform="translate(-29.694915,1.220339)"
       id="a-6"
       gradientUnits="userSpaceOnUse"
       x1="14"
       x2="13.79661"
       y1="22"
       y2="2.1355929">
      <stop
         offset="0"
         stop-color="#0040dd"
         id="stop2-3" />
      <stop
         offset="1"
         stop-color="#0a84ff"
         id="stop4-6" />
    </linearGradient>
  </defs>
  <sodipodi:namedview
     pagecolor="#ffffff"
     bordercolor="#666666"
     borderopacity="1"
     objecttolerance="10"
     gridtolerance="10"
     guidetolerance="10"
     inkscape:pageopacity="0"
     inkscape:pageshadow="2"
     inkscape:window-width="1366"
     inkscape:window-height="706"
     id="namedview24"
     showgrid="true"
     inkscape:zoom="11.313709"
     inkscape:cx="33.080553"
     inkscape:cy="10.862173"
     inkscape:window-x="0"
     inkscape:window-y="0"
     inkscape:window-maximized="1"
     inkscape:current-layer="svg22"
     inkscape:snap-global="true">
    <inkscape:grid
       type="xygrid"
       id="grid1479"
       spacingx="0.5"
       spacingy="0.5"
       empspacing="2" />
  </sodipodi:namedview>
  <radialGradient
     id="a"
     cx="22"
     cy="9.076923"
     gradientTransform="matrix(1.3 .00000001 -.00000002 1.5 -6.6 -6.615385)"
     gradientUnits="userSpaceOnUse"
     r="10">
    <stop
       offset="0"
       stop-color="#d7d7d7"
       id="stop2" />
    <stop
       offset=".29999998"
       stop-color="#f7f7f7"
       id="stop4" />
    <stop
       offset="1"
       stop-color="#fff"
       id="stop6" />
  </radialGradient>
  <linearGradient
     id="b"
     gradientUnits="userSpaceOnUse"
     x1="20"
     x2="23"
     y1="9"
     y2="6">
    <stop
       offset="0"
       stop-color="#fff"
       id="stop9" />
    <stop
       offset=".77967989"
       stop-color="#f1f1f1"
       id="stop11" />
    <stop
       offset="1"
       stop-color="#d5d5d5"
       id="stop13" />
  </linearGradient>
  <g
     id="g838">
    <path
       id="path16"
       fill="url(#a)"
       d="m6 3v26h19.99762l.00238-19-7-7z" />
    <path
       id="path18"
       fill="#98989d"
       d="m5.9976202 2c-.554 0-1 .446-1 1v26c0 .554.446 1 1 1h19.9999998c.554 0 .892483-.456533 1-1v-10.109375-10.5052752l-6.508082-6.3853498zm0 1h12.9999998v6c0 .6726441.491378 1 1 1h6v19h-19.9999998z" />
    <path
       id="path20"
       fill-rule="evenodd"
       fill="url(#b)"
       d="m20 9h6l-6-6z" />
  </g>
  <path
     style="fill:#ffffff;fill-opacity:0.78431374;stroke:none;stroke-width:2;stroke-linecap:round;stroke-linejoin:round"
     d="M 23.951172 15 C 22.396874 15.025494 20.999913 16.445387 21 18 L 21 19 L 17 19 C 15.372562 19 14 20.372562 14 22 L 14 24 C 14 25.627438 15.372562 27 17 27 L 21 27 L 21 28 C 20.999817 28.733583 21.297145 29.452221 21.783203 30 L 25.998047 30 C 26.114129 30 26.215485 29.970281 26.3125 29.933594 L 26.880859 29.365234 C 26.932205 29.250966 26.972524 29.12901 26.998047 29 L 26.998047 18.890625 L 26.998047 16.751953 L 26.119141 15.875 A 2.000261 2.000261 0 0 0 26.117188 15.873047 C 25.550394 15.309052 24.750644 14.986726 23.951172 15 z "
     id="path1516" />
  <path
     style="fill:url(#linearGradient1500);fill-opacity:1;stroke:none;stroke-width:2;stroke-linecap:round;stroke-linejoin:round"
     d="M 23.984375 17 A 1.0000674 1.0000674 0 0 0 23 18 L 23 21 L 17 21 C 16.446 21 16 21.446 16 22 L 16 24 C 16 24.554 16.446 25 17 25 L 23 25 L 23 28 A 1.0000674 1.0000674 0 0 0 24.707031 28.708984 L 29.720703 23.708984 A 1.0000674 1.0000674 0 0 0 29.720703 22.291016 L 24.707031 17.291016 A 1.0000674 1.0000674 0 0 0 23.984375 17 z "
     id="path10" />
</svg>
